X:1
T:Vallpolska
C:Jörgen Olsson
R:Polska
O:Västra Eneby, Östergötland
Z:Jörgen Olsson [[jorgen@notvallens.se]]
M:3/4
H:Skriven feb -15
L:1/8
K:G
V:1
"G"g>g gd "C" cB| "D"A>A Ad "G"B2| "C"G>G Gc "G" Bg|"D"L.d2 Ld4|
"G"g>g gd "C" cB| "D"A>A Ad "G"B2| "C"G>G GB "D7" AF|"G"L.G2 LG4|
"D"f>d AA "G" Bg| "D"f>d AA "G" Bg| "D"f>d AA "A7" ^ce|"D7"d2- ddef|
"G"g>g gd "C" cB| "D"A>A Ad "G"B2| "Em"G>G GB "D7" AF|"G"L.G2 LG4|]

